X:049
T:Fahy's Jig 
B:CRE 3.024 (Port an Fhathaigh)
F:file ID: cre.3/049fahy_J
Q:160
L:1/8
M:6/8
R:jig
K:G
B|:dBG GAG|GBd efg|dBG GBd|ecA ABc|
dBG EFG|DGB GA/B/c|ded cBA|1 BGF Gge:|2 BGF G2||
|:d|gfg GBd|gfg afd|gdB GBd|ecA Aaf|
gfe dcd|cBc AB/c/^c|ded BcA|BA/G/F G2:|

%%%

